svgs/solid/minimize.svg

<svg xmlns="http://www.w3.org/2000/svg" viewBox="0 0 512 512"><!--! Font Awesome Free 6.5.2 by @fontawesome - https://fontawesome.com License - https://fontawesome.com/license/free (Icons: CC BY 4.0, Fonts: SIL OFL 1.1, Code: MIT License) Copyright 2024 Fonticons, Inc. --><path d="M456 224H312c-13.3 0-24-10.7-24-24V56c0-9.7 5.8-18.5 14.8-22.2s19.3-1.7 26.2 5.2l40 40L442.3 5.7C446 2 450.9 0 456 0s10 2 13.7 5.7l36.7 36.7C510 46 512 50.9 512 56s-2 10-5.7 13.7L433 143l40 40c6.9 6.9 8.9 17.2 5.2 26.2s-12.5 14.8-22.2 14.8zm0 64c9.7 0 18.5 5.8 22.2 14.8s1.7 19.3-5.2 26.2l-40 40 73.4 73.4c3.6 3.6 5.7 8.5 5.7 13.7s-2 10-5.7 13.7l-36.7 36.7C466 510 461.1 512 456 512s-10-2-13.7-5.7L369 433l-40 40c-6.9 6.9-17.2 8.9-26.2 5.2s-14.8-12.5-14.8-22.2V312c0-13.3 10.7-24 24-24H456zm-256 0c13.3 0 24 10.7 24 24V456c0 9.7-5.8 18.5-14.8 22.2s-19.3 1.7-26.2-5.2l-40-40L69.7 506.3C66 510 61.1 512 56 512s-10-2-13.7-5.7L5.7 469.7C2 466 0 461.1 0 456s2-10 5.7-13.7L79 369 39 329c-6.9-6.9-8.9-17.2-5.2-26.2s12.5-14.8 22.2-14.8H200zM56 224c-9.7 0-18.5-5.8-22.2-14.8s-1.7-19.3 5.2-26.2l40-40L5.7 69.7C2 66 0 61.1 0 56s2-10 5.7-13.7L42.3 5.7C46 2 50.9 0 56 0s10 2 13.7 5.7L143 79l40-40c6.9-6.9 17.2-8.9 26.2-5.2s14.8 12.5 14.8 22.2V200c0 13.3-10.7 24-24 24H56z"/></svg>

<svg xmlns="http://www.w3.org/2000/svg" viewBox="0 0 512 512"><!--! Font Awesome Free 7.2.0 by @fontawesome - https://fontawesome.com License - https://fontawesome.com/license/free (Icons: CC BY 4.0, Fonts: SIL OFL 1.1, Code: MIT License) Copyright 2026 Fonticons, Inc. --><path fill="currentColor" d="M456 224l-144 0c-13.3 0-24-10.7-24-24l0-144c0-9.7 5.8-18.5 14.8-22.2S322.1 32.2 329 39l40 40 73.4-73.4C446 2 450.9 0 456 0s10 2 13.7 5.7l36.7 36.7C510 46 512 50.9 512 56s-2 10-5.7 13.7L433 143 473 183c6.9 6.9 8.9 17.2 5.2 26.2S465.7 224 456 224zm0 64c9.7 0 18.5 5.8 22.2 14.8s1.7 19.3-5.2 26.2l-40 40 73.4 73.4c3.6 3.6 5.7 8.5 5.7 13.7s-2 10-5.7 13.7l-36.7 36.7C466 510 461.1 512 456 512s-10-2-13.7-5.7L369 433 329 473c-6.9 6.9-17.2 8.9-26.2 5.2S288 465.7 288 456l0-144c0-13.3 10.7-24 24-24l144 0zm-256 0c13.3 0 24 10.7 24 24l0 144c0 9.7-5.8 18.5-14.8 22.2s-19.3 1.7-26.2-5.2l-40-40-73.4 73.4C66 510 61.1 512 56 512s-10-2-13.7-5.7L5.7 469.7C2 466 0 461.1 0 456s2-10 5.7-13.7L79 369 39 329c-6.9-6.9-8.9-17.2-5.2-26.2S46.3 288 56 288l144 0zM56 224c-9.7 0-18.5-5.8-22.2-14.8S32.2 189.9 39 183L79 143 5.7 69.7C2 66 0 61.1 0 56S2 46 5.7 42.3L42.3 5.7C46 2 50.9 0 56 0S66 2 69.7 5.7L143 79 183 39c6.9-6.9 17.2-8.9 26.2-5.2S224 46.3 224 56l0 144c0 13.3-10.7 24-24 24L56 224z"/></svg>
